X: 6677
T: Celtic Crane, The
R: reel
M: 4/4
K: Edorian
dc|:BE ~E2 GBAF|D2 (3FED FAAd|BE ~E2 GBAF|DFAB FE ~E2|BE ~E2 GBAF|
DE (3FED FAAd|1 B2 ed ~B3c|dBAF (3FED FA:|2 B2 ed BAFA|dBAF FEFd||
e2 (3gfe be (3gfe|d2 fd faaf|e2 (3gfe be (3gfe|agfa geed|e2 (3gfe be (3gfe|
dfeg faaf|1 efga bg ~g2|a/a/f df efgf:|2 efga bf ~f2|~a3f e2 dc||

